X: 25076
T: Maids Of Islay, The
R: strathspey
M: 4/4
K: Amajor
A<Ae>c e>fe>c|A<Ae>c f>e c2|A<Ae>c e>fe>c|f>ga>f e>cB>c:|
a>ba>f e>fe<c|a>ba>f e<f c2|a>ba>f e>fe<c|f>ga>f e>cB>c|
a>ba>f e>fe<c|a>ba>f e<f c2|a<bf<a e<fc>e|f>ga>f e>cB>c||

